static/images/product/api/api2.svg

<svg height="142" viewBox="0 0 160 142" width="160" xmlns="http://www.w3.org/2000/svg" xmlns:xlink="http://www.w3.org/1999/xlink"><linearGradient id="a" x1="0%" x2="149.460671%" y1="0%" y2="71.875%"><stop offset="0" stop-color="#00eaf8"/><stop offset="1" stop-color="#6d42ef"/></linearGradient><path d="m617.645391 130.440835.23018.398443 21.089166 36.324358 2.108704-9.566164c.396056-1.796713 2.166562-2.9306 3.954536-2.532609 1.787975.397992 2.916347 2.17715 2.520292 3.973863l-3.363323 15.257758c.293503.633873.389046 1.364636.226439 2.098653-.367992 1.661131-1.928735 2.754997-3.590569 2.588083-.156307.015885-.314959.020642-.474953.013628-.668198.029522-1.332553-.148951-1.896255-.509744l-15.391459-3.369775c-1.80001-.39409-2.937846-2.164196-2.541429-3.953642s2.176973-2.920605 3.976982-2.526515l8.962467 1.962225-20.719949-35.688428c-7.525907 3.13883-15.938921 3.056791-23.27904.007057l-20.691185 35.672798 8.923309-1.953652c1.80001-.39409 3.580566.737069 3.976983 2.526515s-.74142 3.559552-2.54143 3.953642l-15.344227 3.359435c-.573186.369853-1.25075.551976-1.931748.519548-.163973.007776-.326563.003181-.486691-.013092-1.661834.166914-3.222578-.926952-3.590569-2.588083-.162607-.734017-.067065-1.46478.226439-2.098653l-3.363323-15.257758c-.396056-1.796713.732317-3.575871 2.520291-3.973863 1.787975-.397991 3.558481.735896 3.954537 2.532609l2.102897 9.539824 20.517012-35.372513c-1.305681-.918679-2.548616-1.950496-3.713691-3.093498-9.537454-9.356765-11.478939-23.831088-4.733494-35.2895519 2.01485-3.4226188 4.654672-6.3212232 7.713555-8.612174l-5.231788-9.1053633-14.835455-25.5137525-1.819036 8.2520851c-.396056 1.7967122-2.166562 2.9305996-3.954537 2.5326082-1.787974-.3979913-2.916347-2.17715-2.520291-3.9738622l3.363323-15.2577582c-.200872-.4338177-.30902-.9130174-.30515-1.4075833-.008909-1.135131.575729-2.2428952 1.62915-2.8536927.52709-.3056184 1.10421-.4477746 1.67245-.4420756.121707-.0012093.244415.0042349.36768.0166156.342719-.0348304.69672-.0161621 1.051407.062789.321149.0714857.621019.1875307.894596.3402329l15.816663 3.4628685c1.80001.3940905 2.937847 2.1641966 2.54143 3.9536426s-2.176973 2.9206051-3.976983 2.5265146l-10.101871-2.2116833 15.832842 27.2290447 5.208644 9.06512c6.161286-2.7811148 13.27086-3.4972244 20.177603-1.6807573 1.350764.3552498 2.658848.7864392 3.918579 1.2887491l20.651554-35.6352889-8.882953 1.9448157c-1.800009.3940905-3.580565-.7370686-3.976982-2.5265146s.741419-3.5595521 2.541429-3.9536426l15.296219-3.3489234c.582837-.3790906 1.273925-.5648982 1.967978-.5294799.167965-.008569.334508-.0041504.49847.0125129 1.661834-.1669146 3.222577.9269518 3.590569 2.588083.162607.7340168.067064 1.4647794-.226439 2.098653l3.363323 15.2577582c.396055 1.7967122-.732317 3.5758709-2.520292 3.9738622-1.787974.3979914-3.55848-.735896-3.954536-2.5326082l-2.097456-9.5151392-20.414271 35.2258335c6.391525 4.2732364 10.775232 10.7416232 11.988281 18.4172223.013093.082848.025817.165838.03817.248967h37.270222l-7.719658-7.7075967c-1.344013-1.3419133-1.344013-3.5175847 0-4.859498s3.523089-1.3419133 4.867103 0l12.986158 12.9658677c.749481.748309 1.081018 1.75589.994612 2.73358.086406.97769-.245131 1.98527-.994612 2.73358l-12.986158 12.965867c-1.344014 1.341913-3.52309 1.341913-4.867103 0s-1.344013-3.517585 0-4.859498l7.719658-7.707596h-39.922537c-1.786067 0-3.242222-1.334727-3.312295-3.006184-.325212-1.236955-.523573-2.196961-.811517-3.559918-1.71132-8.1003722-8.097825-14.170959-16.720454-16.4387024-10.133299-2.6650482-20.827946 1.6790021-26.074403 10.591141-5.246456 8.9121394-3.736413 20.1699454 3.681607 27.4474294s18.894183 8.759859 27.979801 3.614148c1.583734-.896961 3.608848-.364665 4.523217 1.188917.289929.49261.433371 1.028752.443585 1.559886zm-98.641405-24.667056c-.044915-.933819.28976-1.882446 1.004024-2.595594l12.986158-12.9658677c1.344014-1.3419133 3.52309-1.3419133 4.867103 0s1.344013 3.5175847 0 4.859498l-7.719658 7.7075967h26.505446c2.310211 0 4.183006 1.402402 4.183006 3.132353 0 1.72995-1.872795 3.132353-4.183006 3.132353h-26.505446l7.719658 7.707596c1.344013 1.341913 1.344013 3.517585 0 4.859498s-3.523089 1.341913-4.867103 0l-12.986158-12.965867c-.714264-.713149-1.048939-1.661775-1.004024-2.595595-.002648-.045747-.003986-.091749-.003986-.137985s.001338-.092238.003986-.137986z" fill="url(#a)" transform="translate(-519 -37)"/></svg>

<?xml version="1.0" encoding="UTF-8"?>
<svg width="160px" height="142px" viewBox="0 0 160 142" version="1.1" xmlns="http://www.w3.org/2000/svg" xmlns:xlink="http://www.w3.org/1999/xlink">
    <!-- Generator: sketchtool 46.2 (44496) - http://www.bohemiancoding.com/sketch -->
    <title>F509CE6D-46D1-4D1A-8C07-F65988A0340D</title>
    <desc>Created with sketchtool.</desc>
    <defs>
        <linearGradient x1="0%" y1="0%" x2="149.460671%" y2="71.875%" id="linearGradient-1">
            <stop stop-color="#00EAF8" offset="0%"></stop>
            <stop stop-color="#6D42EF" offset="100%"></stop>
        </linearGradient>
    </defs>
    <g id="Page-1" stroke="none" stroke-width="1" fill="none" fill-rule="evenodd">
        <g id="Rakam-API-Screen-10/10/2017-Designed" transform="translate(-745.000000, -1045.000000)" fill-rule="nonzero" fill="url(#linearGradient-1)">
            <g id="Analytics" transform="translate(49.000000, 784.000000)">
                <g id="txt" transform="translate(177.000000, 224.000000)">
                    <path d="M617.645391,130.440835 L617.875571,130.839278 L638.964737,167.163636 L641.073441,157.597472 C641.469497,155.800759 643.240003,154.666872 645.027977,155.064863 C646.815952,155.462855 647.944324,157.242013 647.548269,159.038726 L644.184946,174.296484 C644.478449,174.930357 644.573992,175.66112 644.411385,176.395137 C644.043393,178.056268 642.48265,179.150134 640.820816,178.98322 C640.664509,178.999105 640.505857,179.003862 640.345863,178.996848 C639.677665,179.02637 639.01331,178.847897 638.449608,178.487104 L623.058149,175.117329 C621.258139,174.723239 620.120303,172.953133 620.51672,171.163687 C620.913137,169.374241 622.693693,168.243082 624.493702,168.637172 L633.456169,170.599397 L612.73622,134.910969 C605.210313,138.049799 596.797299,137.96776 589.45718,134.918026 L568.765995,170.590824 L577.689304,168.637172 C579.489314,168.243082 581.26987,169.374241 581.666287,171.163687 C582.062704,172.953133 580.924867,174.723239 579.124857,175.117329 L563.78063,178.476764 C563.207444,178.846617 562.52988,179.02874 561.848882,178.996312 C561.684909,179.004088 561.522319,178.999493 561.362191,178.98322 C559.700357,179.150134 558.139613,178.056268 557.771622,176.395137 C557.609015,175.66112 557.704557,174.930357 557.998061,174.296484 L554.634738,159.038726 C554.238682,157.242013 555.367055,155.462855 557.155029,155.064863 C558.943004,154.666872 560.71351,155.800759 561.109566,157.597472 L563.212463,167.137296 L583.729475,131.764783 C582.423794,130.846104 581.180859,129.814287 580.015784,128.671285 C570.47833,119.31452 568.536845,104.840197 575.28229,93.3817331 C577.29714,89.9591143 579.936962,87.0605099 582.995845,84.7695591 L577.764057,75.6641958 L562.928602,50.1504433 L561.109566,58.4025284 C560.71351,60.1992406 558.943004,61.333128 557.155029,60.9351366 C555.367055,60.5371453 554.238682,58.7579866 554.634738,56.9612744 L557.998061,41.7035162 C557.797189,41.2696985 557.689041,40.7904988 557.692911,40.2959329 C557.684002,39.1608019 558.26864,38.0530377 559.322061,37.4422402 C559.849151,37.1366218 560.426271,36.9944656 560.994511,37.0001646 C561.116218,36.9989553 561.238926,37.0043995 561.362191,37.0167802 C561.70491,36.9819498 562.058911,37.0006181 562.413598,37.0795692 C562.734747,37.1510549 563.034617,37.2670999 563.308194,37.4198021 L579.124857,40.8826706 C580.924867,41.2767611 582.062704,43.0468672 581.666287,44.8363132 C581.26987,46.6257592 579.489314,47.7569183 577.689304,47.3628278 L567.587433,45.1511445 L583.420275,72.3801892 L588.628919,81.4453092 C594.790205,78.6641944 601.899779,77.9480848 608.806522,79.7645519 C610.157286,80.1198017 611.46537,80.5509911 612.725101,81.053301 L633.376655,45.4180121 L624.493702,47.3628278 C622.693693,47.7569183 620.913137,46.6257592 620.51672,44.8363132 C620.120303,43.0468672 621.258139,41.2767611 623.058149,40.8826706 L638.354368,37.5337472 C638.937205,37.1546566 639.628293,36.968849 640.322346,37.0042673 C640.490311,36.9956983 640.656854,37.0001169 640.820816,37.0167802 C642.48265,36.8498656 644.043393,37.943732 644.411385,39.6048632 C644.573992,40.33888 644.478449,41.0696426 644.184946,41.7035162 L647.548269,56.9612744 C647.944324,58.7579866 646.815952,60.5371453 645.027977,60.9351366 C643.240003,61.333128 641.469497,60.1992406 641.073441,58.4025284 L638.975985,48.8873892 L618.561714,84.1132227 C624.953239,88.3864591 629.336946,94.8548459 630.549995,102.530445 C630.563088,102.613293 630.575812,102.696283 630.588165,102.779412 L667.858387,102.779412 L660.138729,95.0718153 C658.794716,93.729902 658.794716,91.5542306 660.138729,90.2123173 C661.482742,88.870404 663.661818,88.870404 665.005832,90.2123173 L677.99199,103.178185 C678.741471,103.926494 679.073008,104.934075 678.986602,105.911765 C679.073008,106.889455 678.741471,107.897035 677.99199,108.645345 L665.005832,121.611212 C663.661818,122.953125 661.482742,122.953125 660.138729,121.611212 C658.794716,120.269299 658.794716,118.093627 660.138729,116.751714 L667.858387,109.044118 L627.93585,109.044118 C626.149783,109.044118 624.693628,107.709391 624.623555,106.037934 C624.298343,104.800979 624.099982,103.840973 623.812038,102.478016 C622.100718,94.3776438 615.714213,88.307057 607.091584,86.0393136 C596.958285,83.3742654 586.263638,87.7183157 581.017181,96.6304546 C575.770725,105.542594 577.280768,116.8004 584.698788,124.077884 C592.116808,131.355368 603.592971,132.837743 612.678589,127.692032 C614.262323,126.795071 616.287437,127.327367 617.201806,128.880949 C617.491735,129.373559 617.635177,129.909701 617.645391,130.440835 Z M519.003986,105.773779 C518.959071,104.83996 519.293746,103.891333 520.00801,103.178185 L532.994168,90.2123173 C534.338182,88.870404 536.517258,88.870404 537.861271,90.2123173 C539.205284,91.5542306 539.205284,93.729902 537.861271,95.0718153 L530.141613,102.779412 L556.647059,102.779412 C558.95727,102.779412 560.830065,104.181814 560.830065,105.911765 C560.830065,107.641715 558.95727,109.044118 556.647059,109.044118 L530.141613,109.044118 L537.861271,116.751714 C539.205284,118.093627 539.205284,120.269299 537.861271,121.611212 C536.517258,122.953125 534.338182,122.953125 532.994168,121.611212 L520.00801,108.645345 C519.293746,107.932196 518.959071,106.98357 519.003986,106.04975 C519.001338,106.004003 519,105.958001 519,105.911765 C519,105.865529 519.001338,105.819527 519.003986,105.773779 Z" id="Combined-Shape"></path>
                </g>
            </g>
        </g>
    </g>
</svg>
